assets/icons/color-mail.svg

<svg xmlns="http://www.w3.org/2000/svg" width="47" height="50" fill="none"><path fill="#91D301" d="M29.625 19.751H13.166v3.292h16.459zm-9.875-6.579h-6.584v3.292h6.584zm19.75-1.417V6.584h-7.242L23.042 0l-9.217 6.584H6.582v5.171L0 16.459v32.919h46.084V16.459zM9.874 9.872h26.335v12.6L23.042 33.33 9.874 22.472zM3.291 23.043l12.963 9.856-12.963 9.895zm3.292 23.043 13.064-10.609 3.395 2.585 3.388-2.578L39.5 46.086zm36.21-3.292-12.981-9.879 12.981-9.872z"/></svg>

<svg width="47" height="50" viewBox="0 0 47 50" fill="none" xmlns="http://www.w3.org/2000/svg">
<path d="M29.625 19.751H13.166V23.043H29.625V19.751ZM19.75 13.172H13.166V16.464H19.75V13.172ZM39.5 11.755V6.584H32.258L23.042 0L13.825 6.584H6.582V11.755L0 16.459V49.378H46.084V16.459L39.5 11.755ZM9.874 9.872H36.209V22.472L23.042 33.33L9.874 22.472V9.872ZM3.291 23.043L16.254 32.899L3.291 42.794V23.043ZM6.583 46.086L19.647 35.477L23.042 38.062L26.43 35.484L39.5 46.086H6.582H6.583ZM42.793 42.794L29.812 32.915L42.793 23.043V42.794Z" fill="#91D301"/>
</svg>
